SVG_Azure_Grouped/Management/Recovery Services Alert.svg

<?xml version="1.0" encoding="UTF-8" standalone="no"?>
<!-- Generated by Microsoft Visio, SVG Export Recovery Services Alert.svg Page-1 -->

<svg
   xmlns:dc="http://purl.org/dc/elements/1.1/"
   xmlns:cc="http://creativecommons.org/ns#"
   xmlns:rdf="http://www.w3.org/1999/02/22-rdf-syntax-ns#"
   xmlns:svg="http://www.w3.org/2000/svg"
   xmlns="http://www.w3.org/2000/svg"
   xmlns:sodipodi="http://sodipodi.sourceforge.net/DTD/sodipodi-0.dtd"
   xmlns:inkscape="http://www.inkscape.org/namespaces/inkscape"
   width="0.65446407in"
   height="0.77046102in"
   viewBox="0 0 47.121422 55.47313"
   xml:space="preserve"
   class="st2"
   version="1.1"
   id="svg19"
   sodipodi:docname="Recovery Services Alert.svg"
   style="font-size:12px;overflow:visible;color-interpolation-filters:sRGB;fill:none;fill-rule:evenodd;stroke-linecap:square;stroke-miterlimit:3"
   inkscape:version="0.92.5 (2060ec1f9f, 2020-04-08)"><metadata
   id="metadata25"><rdf:RDF><cc:Work
       rdf:about=""><dc:format>image/svg+xml</dc:format><dc:type
         rdf:resource="http://purl.org/dc/dcmitype/StillImage" /></cc:Work></rdf:RDF></metadata><defs
   id="defs23" /><sodipodi:namedview
   pagecolor="#ffffff"
   bordercolor="#666666"
   borderopacity="1"
   objecttolerance="10"
   gridtolerance="10"
   guidetolerance="10"
   inkscape:pageopacity="0"
   inkscape:pageshadow="2"
   inkscape:window-width="640"
   inkscape:window-height="480"
   id="namedview21"
   showgrid="false"
   inkscape:zoom="1.7303555"
   inkscape:cx="31.414581"
   inkscape:cy="22.09369"
   inkscape:window-x="0"
   inkscape:window-y="0"
   inkscape:window-maximized="0"
   inkscape:current-layer="svg19" />
	<style
   type="text/css"
   id="style2">
	<![CDATA[
		.st1 {fill:#ff8c00;stroke:none;stroke-linecap:butt;stroke-width:12.24}
		.st2 {fill:none;fill-rule:evenodd;font-size:12px;overflow:visible;stroke-linecap:square;stroke-miterlimit:3}
	]]>
	</style>

	<g
   id="g17"
   transform="translate(-12.24121,-12.242633)">
		<title
   id="title4">Page-1</title>
		<g
   id="group12188-1"
   transform="translate(10.2903,-34.0157)">
			<title
   id="title6">Recovery Services Alert.12188</title>
			<g
   id="group12189-2">
				<title
   id="title8">Sheet.12189</title>
				<g
   id="shape12190-3">
					<title
   id="title10">Sheet.12190</title>
					<path
   d="m 18.13,93.86 h 15.74 c 0.33,2.44 -0.76,4.1 -2.39,5.66 -2.39,2.33 -5.32,2.77 -8.36,1.55 -3.14,-1.22 -4.77,-3.44 -4.99,-7.21 z m 29.53,-8.77 c -2.82,-2.88 -3.15,-4.65 -3.48,-6.43 0,-0.33 -0.1,-0.22 -0.1,-0.67 -0.22,-4.88 -0.66,-9.43 -2.18,-14.2 -1.19,-3.66 -2.82,-6.88 -5.86,-9.43 -1.95,-1.55 -4.12,-2.44 -6.62,-2.88 v -1.33 c -0.11,-2.78 -2.71,-4.55 -5.21,-3.66 -1.63,0.55 -2.61,1.99 -2.61,3.99 0,0.44 0.22,1 -0.54,1.22 C 15.31,52.92 11.83,56.69 9.77,62.13 7.71,67.34 7.17,73 7.06,78.66 6.62,80.44 6.73,81.77 3.37,85.09 0,88.42 3.69,90.53 3.69,90.53 h 43.64 c 0,-0.11 3.69,-2.22 0.33,-5.44 z M 29.42,84.98 H 21.5 v -8.1 h 7.92 z m 0,-13.86 H 21.71 V 56.47 h 7.71 z"
   class="st1"
   id="path12"
   inkscape:connector-curvature="0"
   style="fill:#ff8c00;stroke:none;stroke-width:12.23999977;stroke-linecap:butt" />
				</g>
			</g>
		</g>
	</g>
</svg>

<?xml version="1.0" encoding="UTF-8" standalone="no"?>
<!DOCTYPE svg PUBLIC "-//W3C//DTD SVG 1.1//EN" "http://www.w3.org/Graphics/SVG/1.1/DTD/svg11.dtd">
<!-- Generated by Microsoft Visio, SVG Export Recovery Services Alert.svg Page-1 -->
<svg xmlns="http://www.w3.org/2000/svg" xmlns:xlink="http://www.w3.org/1999/xlink" xmlns:ev="http://www.w3.org/2001/xml-events"
		width="0.994504in" height="1.42071in" viewBox="0 0 71.6043 102.291" xml:space="preserve" color-interpolation-filters="sRGB"
		class="st2">
	<style type="text/css">
	<![CDATA[
		.st1 {fill:#ff8c00;stroke:none;stroke-linecap:butt;stroke-width:12.24}
		.st2 {fill:none;fill-rule:evenodd;font-size:12px;overflow:visible;stroke-linecap:square;stroke-miterlimit:3}
	]]>
	</style>

	<g>
		<title>Page-1</title>
		<g id="group11909-1" transform="translate(10.2903,-34.0157)">
			<title>Recovery Services Alert.11909</title>
			<g id="group11910-2">
				<title>Sheet.11910</title>
				<g id="shape11911-3">
					<title>Sheet.11911</title>
					<path d="M18.13 93.86 L33.87 93.86 C34.2 96.3 33.11 97.96 31.48 99.52 C29.09 101.85 26.16 102.29 23.12 101.07
								 C19.98 99.85 18.35 97.63 18.13 93.86 ZM47.66 85.09 C44.84 82.21 44.51 80.44 44.18 78.66 C44.18 78.33
								 44.08 78.44 44.08 77.99 C43.86 73.11 43.42 68.56 41.9 63.79 C40.71 60.13 39.08 56.91 36.04 54.36
								 C34.09 52.81 31.92 51.92 29.42 51.48 L29.42 50.15 C29.31 47.37 26.71 45.6 24.21 46.49 C22.58 47.04
								 21.6 48.48 21.6 50.48 C21.6 50.92 21.82 51.48 21.06 51.7 C15.31 52.92 11.83 56.69 9.77 62.13 C7.71
								 67.34 7.17 73 7.06 78.66 C6.62 80.44 6.73 81.77 3.37 85.09 C0 88.42 3.69 90.53 3.69 90.53 L47.33
								 90.53 C47.33 90.42 51.02 88.31 47.66 85.09 ZM29.42 84.98 L21.5 84.98 L21.5 76.88 L29.42 76.88 L29.42
								 84.98 ZM29.42 71.12 L21.71 71.12 L21.71 56.47 L29.42 56.47 L29.42 71.12 Z" class="st1"/>
				</g>
			</g>
		</g>
	</g>
</svg>
